src/components/Sprite/svg/smile.svg

<?xml version="1.0" encoding="UTF-8" standalone="no"?>
<svg
   xmlns:dc="http://purl.org/dc/elements/1.1/"
   xmlns:cc="http://creativecommons.org/ns#"
   xmlns:rdf="http://www.w3.org/1999/02/22-rdf-syntax-ns#"
   xmlns:svg="http://www.w3.org/2000/svg"
   xmlns="http://www.w3.org/2000/svg"
   xmlns:sodipodi="http://sodipodi.sourceforge.net/DTD/sodipodi-0.dtd"
   xmlns:inkscape="http://www.inkscape.org/namespaces/inkscape"
   width="128"
   height="128"
   viewBox="0 0 128 128"
   version="1.1"
   id="svg8"
   inkscape:version="1.0 (4035a4f, 2020-05-01)"
   sodipodi:docname="smile.svg">
  <defs
     id="defs2" />
  <sodipodi:namedview
     id="base"
     pagecolor="#ffffff"
     bordercolor="#666666"
     borderopacity="1.0"
     inkscape:pageopacity="0.0"
     inkscape:pageshadow="2"
     inkscape:zoom="12.321585"
     inkscape:cx="54.132025"
     inkscape:cy="58.005368"
     inkscape:document-units="px"
     inkscape:current-layer="layer1"
     inkscape:document-rotation="0"
     showgrid="true"
     units="px"
     inkscape:window-width="2560"
     inkscape:window-height="1331"
     inkscape:window-x="0"
     inkscape:window-y="25"
     inkscape:window-maximized="0">
    <inkscape:grid
       type="xygrid"
       id="grid10"
       empspacing="4" />
    <inkscape:grid
       type="xygrid"
       id="grid12"
       spacingx="8"
       spacingy="8"
       empspacing="2" />
  </sodipodi:namedview>
  <metadata
     id="metadata5">
    <rdf:RDF>
      <cc:Work
         rdf:about="">
        <dc:format>image/svg+xml</dc:format>
        <dc:type
           rdf:resource="http://purl.org/dc/dcmitype/StillImage" />
        <dc:title />
      </cc:Work>
    </rdf:RDF>
  </metadata>
  <g
     inkscape:label="Layer 1"
     inkscape:groupmode="layer"
     id="layer1">
    <path
       d="M 120,64 A 56,56 0 0 1 64,120 56,56 0 0 1 8,64 56,56 0 0 1 64,8 56,56 0 0 1 120,64"
       style="fill:#ffc107;stroke-width:8;stroke-linecap:round;stroke-linejoin:round"
       id="path16" />
    <path
       d="M 52,52 A 8,8 0 0 1 44,60 8,8 0 0 1 36,52 8,8 0 0 1 44,44 8,8 0 0 1 52,52"
       style="fill:#37474f;stroke-width:8;stroke-linecap:round;stroke-linejoin:round"
       id="path18" />
    <path
       d="M 92,52 A 8,8 0 0 1 84,60 8,8 0 0 1 76,52 8,8 0 0 1 84,44 8,8 0 0 1 92,52"
       style="fill:#37474f;stroke-width:8;stroke-linecap:round;stroke-linejoin:round"
       id="circle20" />
    <path
       id="path3176"
       d="M 41.318359 82.626953 A 4 4 0 0 0 38.544922 83.798828 A 4 4 0 0 0 38.544922 89.455078 C 45.295145 96.205301 54.453743 100 64 100 C 73.546257 100 82.704855 96.205301 89.455078 89.455078 A 4 4 0 0 0 89.455078 83.798828 A 4 4 0 0 0 83.798828 83.798828 C 78.546723 89.050933 71.427598 92 64 92 C 56.572402 92 49.453277 89.050933 44.201172 83.798828 A 4 4 0 0 0 41.318359 82.626953 z "
       style="color:#000000;font-style:normal;font-variant:normal;font-weight:normal;font-stretch:normal;font-size:medium;line-height:normal;font-family:sans-serif;font-variant-ligatures:normal;font-variant-position:normal;font-variant-caps:normal;font-variant-numeric:normal;font-variant-alternates:normal;font-variant-east-asian:normal;font-feature-settings:normal;font-variation-settings:normal;text-indent:0;text-align:start;text-decoration:none;text-decoration-line:none;text-decoration-style:solid;text-decoration-color:#000000;letter-spacing:normal;word-spacing:normal;text-transform:none;writing-mode:lr-tb;direction:ltr;text-orientation:mixed;dominant-baseline:auto;baseline-shift:baseline;text-anchor:start;white-space:normal;shape-padding:0;shape-margin:0;inline-size:0;clip-rule:nonzero;display:inline;overflow:visible;visibility:visible;isolation:auto;mix-blend-mode:normal;color-interpolation:sRGB;color-interpolation-filters:linearRGB;solid-color:#000000;solid-opacity:1;vector-effect:none;fill:#37474f;fill-opacity:1;fill-rule:nonzero;stroke:none;stroke-width:8;stroke-linecap:round;stroke-linejoin:round;stroke-miterlimit:4;stroke-dasharray:none;stroke-dashoffset:0;stroke-opacity:1;color-rendering:auto;image-rendering:auto;shape-rendering:auto;text-rendering:auto;enable-background:accumulate;stop-color:#000000;stop-opacity:1;opacity:1" />
  </g>
</svg>

<svg xmlns="http://www.w3.org/2000/svg" viewBox="0 0 128 128">
    <circle cx="64" cy="64" r="56" fill="#ffc107"/>
    <path fill="#37474f" d="M52 52a8 8 0 01-8 8 8 8 0 01-8-8 8 8 0 018-8 8 8 0 018 8m40 0a8 8 0 01-8 8 8 8 0 01-8-8 8 8 0 018-8 8 8 0 018 8M41.318 82.627a4 4 0 00-2.773 1.172 4 4 0 000 5.656A36.004 36.004 0 0064 100a36.004 36.004 0 0025.455-10.545 4 4 0 000-5.656 4 4 0 00-5.656 0A27.994 27.994 0 0164 92a27.994 27.994 0 01-19.799-8.201 4 4 0 00-2.883-1.172z"/>
</svg>
